svg/u1f4e3.svg

<svg viewBox="0 0 128 128" xmlns="http://www.w3.org/2000/svg">
  <defs>
    <linearGradient id="SVGID_1_" gradientUnits="userSpaceOnUse" x1="115.7079" x2="103.1498" y1="83.0591" y2="52.9196">
      <stop offset="0" stop-color="#353738"/>
      <stop offset="1" stop-color="#353738" stop-opacity="0"/>
    </linearGradient>
  </defs>
  <path d="M65.82,111.42 L52.44,111.96 C47.91,111.86 46.43,110.51 44.82,106.43 L41.41,97.83 L47.69,96.52 L50.64,103.97 C50.96,104.78 51.76,105.29 52.63,105.23 L63.13,104.47 C66.06,104.16 66.54,102.47 65.91,100.88 L62.75,92.91 L70.73,90.13 L74.2,98.9 C75.29,101.66 76.03,104.72 74.77,107.21 C73.32,110.08 71,111.2 65.82,111.42 Z" fill="#82AEC0"/>
  <path d="M41.63,98.38 L43.45,102.97 C43.45,102.97 44.16,101.91 46.47,101.71 C49.1,101.48 50.13,102.67 50.13,102.67 L48.26,97.95 L41.63,98.38 Z" fill="#2F7889"/>
  <path d="M64.35,96.92 L73.2,96.33 C74.4,98.92 74.93,100.96 74.93,100.96 C74.93,100.96 73.08,99.41 69.64,99.64 C67.18,99.8 66.15,101.51 66.15,101.51 L64.35,96.92 Z" fill="#2F7889"/>
  <path d="M24.529,82.56 C28.179,91.778 27.021,100.88 21.942,102.892 C16.864,104.903 9.788,99.061 6.137,89.843 C2.487,80.626 3.645,71.523 8.724,69.512 C13.803,67.501 20.879,73.343 24.529,82.56 Z" fill="#B8DADE"/>
  <path d="M26.58,94.5 C24.62,93.02 19.31,97.08 19.31,97.08 C18.63,101.83 13.38,100.46 13.38,100.46 C16.27,102.9 19.36,103.9 21.94,102.88 C24.68,101.8 26.27,98.63 26.58,94.5 Z" fill="#82AEC0"/>
  <path d="M80.96,14.59 L13.37,69.62 C10.69,71.46 9.42,78.84 12.74,87.22 C16.06,95.6 22.14,100.46 25.32,99.4 L112.18,93.46 C121.61,89.73 122.26,69.04 113.64,47.26 C105.02,25.48 90.39,10.86 80.96,14.59 Z" fill="#F44336"/>
  <path d="M95.17,80.52 C98.36,85.23 93.26,85.44 72.75,88.86 C67.14,89.8 19.31,97.09 19.31,97.09 C20.6,98.28 23.18,100.13 25.38,99.42 C25.38,99.42 110.59,94.1 112.19,93.47 L95.17,80.52 Z" fill="#C62828"/>
  <path d="M73.39,27.74 C74.79,26.73 76.8,25.17 77.28,22.47 C77.53,21.06 77.71,19.45 78.04,18.76 C78.69,17.39 81.18,14.25 81.18,14.25 L13.38,69.62 C11.55,70.87 11.29,72.96 11.29,72.96 C21.67,65.18 63.07,35.21 73.39,27.74 Z" fill="#C62828"/>
  <path d="M117.277,45.831 C126.381,68.821 126.234,90.438 116.95,94.115 C107.666,97.791 92.759,82.135 83.655,59.145 C74.551,36.155 74.697,14.537 83.982,10.861 C93.266,7.184 108.173,22.841 117.277,45.831 Z" fill="#B8DADE"/>
  <path d="M113.653,47.263 C121.208,66.34 122.395,83.761 116.304,86.172 C110.214,88.584 99.153,75.074 91.598,55.997 C84.044,36.92 82.857,19.5 88.947,17.088 C95.037,14.676 106.099,28.186 113.653,47.263 Z" fill="#2F7889"/>
  <path d="M116.3,86.17 C122.39,83.76 121.2,66.34 113.65,47.26 L91.6,56 C99.15,75.07 110.21,88.58 116.3,86.17 Z" fill="url(#SVGID_1_)"/>
  <path d="M79.71,37.64 C78.42,31.96 78.53,26.78 79.35,22.73 C79.58,21.63 80.34,20.31 81.47,20.44 C82.59,20.57 82.92,21.63 82.79,22.75 C82.35,26.57 82.69,31.83 83.71,36.82 C83.94,37.93 83.92,39.38 82.35,39.94 C80.99,40.44 79.94,38.64 79.71,37.64 Z" fill="#FFFFFF"/>
  <path d="M15,75.47 L70.73,37.95 C72.43,36.82 74.54,34.95 74.96,38.71 C75.22,41.05 75.52,43.07 75.31,46.11 C75.18,48 71.47,49.46 70.31,50.05 L14.93,78.84 C14.09,79.26 12.53,79.65 12.79,78.14 C13.08,76.51 14.55,75.77 15,75.47 Z" fill="#FFCA28" opacity="0.45"/>
</svg>

<svg viewBox="0 0 128 128" xmlns="http://www.w3.org/2000/svg">
  <g>
    <path d="M65.82,111.42l-13.38,0.54c-4.53-0.1-6.01-1.45-7.62-5.53l-3.41-8.6l6.28-1.31l2.95,7.45 c0.32,0.81,1.12,1.32,1.99,1.26l10.5-0.76c2.93-0.31,3.41-2,2.78-3.59l-3.16-7.97l7.98-2.78l3.47,8.77 c1.09,2.76,1.83,5.82,0.57,8.31C73.32,110.08,71,111.2,65.82,111.42z" fill="#82AEC0"/>
    <path d="M41.63,98.38l1.82,4.59c0,0,0.71-1.06,3.02-1.26c2.63-0.23,3.66,0.96,3.66,0.96l-1.87-4.72 L41.63,98.38z" fill="#2F7889"/>
    <path d="M64.35,96.92l8.85-0.59c1.2,2.59,1.73,4.63,1.73,4.63s-1.85-1.55-5.29-1.32 c-2.46,0.16-3.49,1.87-3.49,1.87L64.35,96.92z" fill="#2F7889"/>
    <ellipse cx="15.33" cy="86.2" rx="9.89" ry="17.95" fill="#B8DADE" transform="matrix(0.9298 -0.3682 0.3682 0.9298 -30.6595 11.6974)"/>
    <path d="M26.58,94.5c-1.96-1.48-7.27,2.58-7.27,2.58c-0.68,4.75-5.93,3.38-5.93,3.38 c2.89,2.44,5.98,3.44,8.56,2.42C24.68,101.8,26.27,98.63,26.58,94.5z" fill="#82AEC0"/>
    <path d="M80.96,14.59L13.37,69.62c-2.68,1.84-3.95,9.22-0.63,17.6s9.4,13.24,12.58,12.18l86.86-5.94 c9.43-3.73,10.08-24.42,1.46-46.2S90.39,10.86,80.96,14.59z" fill="#F44336"/>
    <path d="M95.17,80.52c3.19,4.71-1.91,4.92-22.42,8.34c-5.61,0.94-53.44,8.23-53.44,8.23 c1.29,1.19,3.87,3.04,6.07,2.33c0,0,85.21-5.32,86.81-5.95L95.17,80.52z" fill="#C62828"/>
    <path d="M73.39,27.74c1.4-1.01,3.41-2.57,3.89-5.27c0.25-1.41,0.43-3.02,0.76-3.71 c0.65-1.37,3.14-4.51,3.14-4.51l-67.8,55.37c-1.83,1.25-2.09,3.34-2.09,3.34C21.67,65.18,63.07,35.21,73.39,27.74z" fill="#C62828"/>
    <ellipse cx="100.46" cy="52.49" rx="18.08" ry="44.77" fill="#B8DADE" transform="matrix(0.9298 -0.3682 0.3682 0.9298 -12.2687 40.6719)"/>
    <ellipse cx="102.62" cy="51.63" rx="11.86" ry="37.15" fill="#2F7889" transform="matrix(0.9298 -0.3682 0.3682 0.9298 -11.8006 41.4094)"/>
    <linearGradient id="SVGID_1_" gradientUnits="userSpaceOnUse" x1="115.7079" x2="103.1498" y1="83.0591" y2="52.9196">
      <stop offset="0" stop-color="#353738"/>
      <stop offset="1" stop-color="#353738" stop-opacity="0"/>
    </linearGradient>
    <path d="M116.3,86.17c6.09-2.41,4.9-19.83-2.65-38.91L91.6,56C99.15,75.07,110.21,88.58,116.3,86.17z " fill="url(#SVGID_1_)"/>
    <path d="M79.71,37.64c-1.29-5.68-1.18-10.86-0.36-14.91c0.23-1.1,0.99-2.42,2.12-2.29 c1.12,0.13,1.45,1.19,1.32,2.31c-0.44,3.82-0.1,9.08,0.92,14.07c0.23,1.11,0.21,2.56-1.36,3.12 C80.99,40.44,79.94,38.64,79.71,37.64z" fill="#FFFFFF"/>
    <path d="M15,75.47l55.73-37.52c1.7-1.13,3.81-3,4.23,0.76c0.26,2.34,0.56,4.36,0.35,7.4 c-0.13,1.89-3.84,3.35-5,3.94L14.93,78.84c-0.84,0.42-2.4,0.81-2.14-0.7C13.08,76.51,14.55,75.77,15,75.47z" opacity="0.45" fill="#FFCA28"/>
  </g>
</svg>
